X: 518
T: Lady Seymour's Waltz
R: waltz
B: "Preston's Twenty Four Country Dances for the Year 1804", Tho. Preston, ed. p.219
F: http://imslp.org/wiki/24_Country_Dances_for_the_Year_1804_(Preston_(publisher),_Thomas)
N: Much of bar 12 is barely legible, and was transcribed to match bar 9.
N: The 3rd strain has a pickup note; the resulting rhythm mismatch hasn't been fixed.
M: 3/8
L: 1/16
K: Bb
|:\
B2(Bc)(de) | f2f2d2 | g2g2e2 | f2f2d2 |\
B2Bcde | f2f2d2 | g2g2e2 | f4z2 :|
|:\
d2(de)d2 | e2(ef)e2 | c2(cd)c2 | d2ded2 |\
B2(Bc)B2 | c2(cd)c2 | A2(AB)A2 | B6 :|
|: f2 |\
(f2e2).e2 | (e2d2).d2 | (d2c2).c2 | c4f2 |\
.f2(f2e2) | .e2(e2d2) | (cd)(ec)(BA) | B4 :|
% - - - - - - - - - - - - - - - - - - - - - - - - -
%%begintext align
%% 1st Lady set to the 2d Gentn. & turn round with
%% both hands, 1st Gentn. the same with the 2d Lady,
%% lead down the middle up again in Allemande, and
%% swing corners.
%%endtext

%%sep 1 1 500
